X: 36019
T: Sbrando
R: jig
M: 6/8
K: Dmajor
|:F2G|A2A ABA|F2F AGF|EDE GFE|F2D F2G|
A2A ABA|F2F AGF|EDE GFE|D3:|
|:EFE|D3 E3|F2D EFE|DEF GFE|F2D F2G|
A2A ABA|F2F AGF|E2E GFE|D3:|
K:G
|:DEF|G2G GAB|c2c ABc|ded cBA|B2G DEF|
G2G GAB|c2c ABc|ded cBA|G3:|

